icons/source/generic/accommodation.svg

<?xml version="1.0" encoding="utf-8"?>
<!-- Generated by IcoMoon.io -->
<!DOCTYPE svg PUBLIC "-//W3C//DTD SVG 1.1//EN" "http://www.w3.org/Graphics/SVG/1.1/DTD/svg11.dtd">
<svg version="1.1" xmlns="http://www.w3.org/2000/svg" xmlns:xlink="http://www.w3.org/1999/xlink" width="32" height="32" viewBox="0 0 32 32">
<path d="M0.5 27.757v-1.938h31v1.938h-3.875v3.875h-3.875v-3.875h-15.5v3.875h-3.875v-3.875h-3.875zM25.688 10.32l5.812 13.562h-31l5.812-13.562h19.376zM11.156 8.382c-2.674 0-4.844 0.867-4.844 1.938v-7.75c0-1.071 0.867-1.938 1.938-1.938h15.5c1.072 0 1.938 0.867 1.938 1.938v7.75c0-1.071-2.169-1.938-4.844-1.938s-4.844 0.867-4.844 1.938c0-1.071-2.169-1.938-4.844-1.938z"></path>
</svg>

<svg xmlns="http://www.w3.org/2000/svg" width="32" height="32" viewBox="0 0 32 32"><path d="M.5 27.757v-1.938h31v1.938h-3.875v3.875H23.75v-3.875H8.25v3.875H4.375v-3.875H.5zM25.688 10.32L31.5 23.882H.5L6.312 10.32h19.376zM11.156 8.382c-2.674 0-4.844.867-4.844 1.938V2.57c0-1.071.867-1.938 1.938-1.938h15.5c1.072 0 1.938.867 1.938 1.938v7.75c0-1.071-2.169-1.938-4.844-1.938S16 9.249 16 10.32c0-1.071-2.169-1.938-4.844-1.938z"/></svg>
